Flat-Remix-Dark/apps/scalable/application-default-icon.svg

<svg xmlns="http://www.w3.org/2000/svg" xmlns:xlink="http://www.w3.org/1999/xlink" width="384pt" height="384pt" version="1.1" viewBox="0 0 384 384"> <defs> <filter id="alpha" width="100%" height="100%" x="0%" y="0%" filterUnits="objectBoundingBox"> <feColorMatrix in="SourceGraphic" type="matrix" values="0 0 0 0 1 0 0 0 0 1 0 0 0 0 1 0 0 0 1 0"/> </filter> <mask id="mask0"> <g filter="url(#alpha)"> <rect width="384" height="384" x="0" y="0" style="fill:rgb(0%,0%,0%);fill-opacity:0.301961"/> </g> </mask> <clipPath id="clip1"> <rect width="384" height="384" x="0" y="0"/> </clipPath> <g id="surface5" clip-path="url(#clip1)"> <path style="fill:rgb(9.803%,9.803%,9.803%)" d="M 255.640625 198.152344 C 255.640625 233.328125 227.125 261.847656 191.945312 261.847656 C 156.769531 261.847656 128.25 233.328125 128.25 198.152344 C 128.25 162.972656 156.769531 134.453125 191.945312 134.453125 C 227.125 134.453125 255.640625 162.972656 255.640625 198.152344 Z M 255.640625 198.152344"/> </g> </defs> <g> <path style="fill:rgb(70.196%,70.196%,70.196%)" d="M 105.050781 355.839844 C 102.824219 353.449219 101.230469 349.074219 101.253906 345.398438 C 101.261719 343.503906 103.214844 337.035156 106.832031 326.90625 C 109.894531 318.335938 112.4375 310.554688 112.488281 309.613281 C 112.554688 308.367188 111.066406 306.53125 106.992188 302.835938 C 103.917969 300.046875 99.453125 295.46875 97.070312 292.660156 C 94.683594 289.847656 92.074219 287.269531 91.265625 286.929688 C 90.359375 286.546875 83.703125 288.472656 73.886719 291.960938 C 65.136719 295.070312 56.734375 297.703125 55.21875 297.8125 C 52.101562 298.042969 46.242188 295.8125 43.734375 293.441406 C 41.742188 291.554688 27.160156 256.257812 26.839844 252.542969 C 26.523438 248.859375 29.082031 243.304688 32.3125 240.652344 C 33.785156 239.445312 41.75 235.398438 50.011719 231.664062 C 58.90625 227.640625 65.277344 224.292969 65.632812 223.457031 C 65.960938 222.679688 66.035156 219.035156 65.796875 215.355469 C 65.558594 211.679688 65.582031 205.300781 65.851562 201.179688 C 66.117188 197.0625 65.9375 193.207031 65.449219 192.617188 C 64.960938 192.027344 57.875 188.265625 49.707031 184.257812 C 40.207031 179.597656 33.953125 176.136719 32.34375 174.65625 C 29.285156 171.835938 27 165.644531 27.761719 162.222656 C 28.066406 160.835938 32.015625 151.253906 36.527344 140.933594 L 44.738281 122.171875 L 48.058594 120.371094 C 53.921875 117.195312 55.929688 117.476562 74.699219 124.105469 C 85.324219 127.859375 91.902344 129.851562 92.648438 129.546875 C 93.296875 129.28125 96.359375 126.378906 99.449219 123.101562 C 102.542969 119.824219 107.054688 115.453125 109.476562 113.394531 C 111.898438 111.335938 114.121094 109.074219 114.421875 108.375 C 114.71875 107.671875 112.644531 100.507812 109.8125 92.457031 C 106.980469 84.410156 104.34375 76.542969 103.949219 74.980469 C 102.84375 70.582031 103.742188 66.101562 106.449219 62.484375 C 108.492188 59.753906 110.570312 58.683594 127.019531 51.898438 C 137.082031 47.75 146.753906 44.246094 148.511719 44.113281 C 152.59375 43.808594 157.929688 46.042969 160.535156 49.148438 C 161.632812 50.457031 165.582031 58.230469 169.316406 66.429688 C 173.046875 74.625 176.414062 81.742188 176.796875 82.246094 C 177.203125 82.773438 180.980469 83.011719 185.789062 82.8125 C 190.351562 82.625 197.027344 82.695312 200.625 82.96875 C 205.503906 83.339844 207.550781 83.121094 208.675781 82.113281 C 209.5 81.371094 213.46875 74.085938 217.492188 65.921875 C 225.226562 50.226562 226.855469 47.917969 231.640625 45.859375 C 236.964844 43.574219 239.21875 44.15625 259.742188 53.128906 L 278.4375 61.304688 L 280.550781 64.496094 C 284.1875 69.984375 283.914062 72.328125 277.519531 90.726562 C 274.421875 99.636719 271.761719 107.664062 271.605469 108.570312 C 271.382812 109.847656 272.570312 111.355469 276.855469 115.246094 C 279.902344 118.011719 284.601562 122.867188 287.296875 126.039062 C 289.992188 129.207031 292.46875 131.917969 292.804688 132.0625 C 293.140625 132.203125 300.667969 129.738281 309.535156 126.585938 C 318.402344 123.433594 327.097656 120.738281 328.863281 120.59375 C 333.03125 120.257812 338.101562 122.425781 341.066406 125.816406 C 342.476562 127.425781 346.171875 135.453125 350.492188 146.292969 C 357.914062 164.894531 358.300781 166.828125 355.792969 172.765625 C 354.023438 176.96875 350.984375 178.929688 334.648438 186.429688 C 325.761719 190.507812 318.375 194.125 318.230469 194.46875 C 318.082031 194.816406 318.148438 199.066406 318.371094 203.921875 C 318.597656 208.773438 318.511719 215.402344 318.179688 218.648438 C 317.765625 222.679688 317.945312 224.929688 318.734375 225.75 C 319.375 226.410156 326.890625 230.445312 335.4375 234.714844 C 352.398438 243.1875 354.902344 245.09375 356.082031 250.441406 C 357.195312 255.496094 356.285156 258.546875 348 277.421875 L 340.074219 295.476562 L 336.65625 297.605469 C 330.558594 301.402344 329.476562 301.273438 309.613281 294.339844 C 299.90625 290.953125 291.730469 288.277344 291.441406 288.394531 C 291.152344 288.511719 288.699219 291.03125 285.992188 293.996094 C 283.28125 296.960938 278.460938 301.601562 275.273438 304.308594 C 272.089844 307.015625 269.402344 309.699219 269.300781 310.265625 C 269.199219 310.835938 271.597656 318.289062 274.632812 326.832031 C 277.667969 335.371094 280.265625 344.074219 280.410156 346.171875 C 280.714844 350.625 279.242188 354.582031 276.152344 357.601562 C 273.425781 360.265625 240.558594 373.875 236.007812 374.222656 C 232.203125 374.515625 226.441406 372.277344 223.777344 369.472656 C 222.757812 368.398438 218.707031 360.488281 214.777344 351.894531 C 210.847656 343.300781 207.125 336.050781 206.5 335.785156 C 205.878906 335.519531 201.648438 335.4375 197.101562 335.601562 C 192.554688 335.765625 185.960938 335.660156 182.453125 335.371094 C 177.605469 334.96875 175.84375 335.160156 175.109375 336.171875 C 174.574219 336.902344 170.664062 344.386719 166.414062 352.804688 C 157.070312 371.324219 155.464844 373.078125 147.40625 373.625 C 145.070312 373.785156 141.8125 372.601562 125.714844 365.75 C 111.464844 359.683594 106.34375 357.226562 105.050781 355.839844 Z M 168.851562 283.082031 C 186.710938 288.539062 203.890625 287.777344 221.214844 280.757812 C 234.417969 275.40625 244.8125 267.527344 253.980469 255.929688 C 259.726562 248.65625 267.417969 230.476562 268.679688 221.183594 C 272.507812 192.984375 262.300781 166.699219 240.480469 148.5625 C 235.398438 144.339844 233.886719 143.5 222.574219 138.648438 C 211.738281 134 209.394531 133.234375 203.511719 132.4375 C 174.140625 128.464844 145.039062 141.082031 128.410156 165 C 113.46875 186.488281 110.492188 213.625 120.375 238.226562 C 125.550781 251.109375 134.429688 262.714844 145.71875 271.351562 C 148.9375 273.816406 153.761719 276.707031 160.8125 280.402344 C 161.375 280.695312 164.992188 281.902344 168.851562 283.082031 Z M 163.882812 245.992188 C 147.921875 233.457031 141.808594 212.757812 148.492188 193.882812 C 153.164062 180.6875 161.917969 171.558594 174.910156 166.332031 C 198.574219 156.8125 225.203125 167.921875 234.6875 191.261719 C 242.5 210.488281 237.609375 231.050781 222.074219 244.332031 C 208.839844 255.644531 192.074219 258.523438 175.644531 252.304688 C 170.050781 250.1875 167.4375 248.785156 163.882812 245.992188 Z M 191.621094 236.710938 C 197.394531 236.960938 207.535156 233.957031 212.191406 229.925781 C 215.480469 227.082031 216.199219 225.976562 218.875 219.667969 C 221.71875 212.953125 219.984375 212.316406 219.484375 207.097656 C 218.472656 196.5625 213.417969 189.296875 203.894531 184.679688 C 196.242188 180.972656 190.859375 180.644531 183.027344 183.410156 C 173.09375 186.917969 166.390625 194.804688 164.886719 204.75 C 163.582031 213.363281 165.5625 220.421875 171.132812 227.019531 C 176.324219 233.175781 183.015625 236.34375 191.621094 236.710938 Z M 191.621094 236.710938"/> <path style="fill:rgb(100.000%,100.000%,100.000%);stroke-width:20;stroke:rgb(90.196%,90.196%,90.196%)" d="M 140.067708 446.671875 C 137.098958 443.484375 134.973958 437.651042 135.005208 432.75 C 135.015625 430.223958 137.619792 421.598958 142.442708 408.088542 C 146.526042 396.666667 149.916667 386.291667 149.984375 385.036458 C 150.072917 383.369792 148.088542 380.927083 142.65625 375.994792 C 138.557292 372.28125 132.604167 366.171875 129.427083 362.427083 C 126.244792 358.682292 122.765625 355.244792 121.6875 354.791667 C 120.479167 354.276042 111.604167 356.848958 98.515625 361.494792 C 86.848958 365.640625 75.645833 369.15625 73.625 369.302083 C 69.46875 369.604167 61.65625 366.630208 58.3125 363.46875 C 55.65625 360.958333 36.213542 313.895833 35.786458 308.942708 C 35.364583 304.03125 38.776042 296.625 43.083333 293.088542 C 45.046875 291.473958 55.666667 286.083333 66.682292 281.098958 C 78.541667 275.739583 87.036458 271.276042 87.510417 270.15625 C 87.947917 269.119792 88.046875 264.265625 87.729167 259.359375 C 87.411458 254.458333 87.442708 245.953125 87.802083 240.458333 C 88.15625 234.963542 87.916667 229.828125 87.265625 229.036458 C 86.614583 228.25 77.166667 223.234375 66.276042 217.895833 C 53.609375 211.682292 45.270833 207.067708 43.125 205.09375 C 39.046875 201.328125 36 193.078125 37.015625 188.515625 C 37.421875 186.661458 42.6875 173.890625 48.708333 160.130208 L 59.651042 135.109375 L 64.078125 132.713542 C 71.895833 128.479167 74.572917 128.854167 99.598958 137.692708 C 113.765625 142.697917 122.536458 145.354167 123.53125 144.947917 C 124.395833 144.588542 128.479167 140.723958 132.598958 136.354167 C 136.723958 131.979167 142.739583 126.15625 145.96875 123.411458 C 149.197917 120.666667 152.161458 117.651042 152.5625 116.713542 C 152.958333 115.776042 150.192708 106.229167 146.416667 95.494792 C 142.640625 84.760417 139.125 74.276042 138.598958 72.192708 C 137.125 66.328125 138.322917 60.348958 141.932292 55.526042 C 144.65625 51.885417 147.427083 50.463542 169.359375 41.416667 C 182.776042 35.885417 195.671875 31.213542 198.015625 31.036458 C 203.458333 30.630208 210.572917 33.609375 214.046875 37.75 C 215.510417 39.489583 220.776042 49.859375 225.755208 60.791667 C 230.729167 71.71875 235.21875 81.208333 235.729167 81.875 C 236.270833 82.583333 241.307292 82.901042 247.71875 82.635417 C 253.802083 82.385417 262.703125 82.473958 267.5 82.838542 C 274.005208 83.333333 276.734375 83.046875 278.234375 81.703125 C 279.333333 80.708333 284.625 70.994792 289.989583 60.114583 C 300.302083 39.1875 302.473958 36.104167 308.854167 33.364583 C 315.953125 30.3125 318.958333 31.09375 346.322917 43.057292 L 371.25 53.953125 L 374.067708 58.208333 C 378.916667 65.53125 378.552083 68.651042 370.026042 93.1875 C 365.895833 105.0625 362.348958 115.770833 362.140625 116.979167 C 361.84375 118.677083 363.427083 120.6875 369.140625 125.880208 C 373.203125 129.5625 379.46875 136.041667 383.0625 140.265625 C 386.65625 144.494792 389.958333 148.109375 390.40625 148.296875 C 390.854167 148.489583 400.890625 145.203125 412.713542 141 C 424.536458 136.796875 436.130208 133.203125 438.484375 133.010417 C 444.041667 132.5625 450.802083 135.453125 454.755208 139.96875 C 456.635417 142.114583 461.5625 152.822917 467.322917 167.270833 C 477.21875 192.078125 477.734375 194.65625 474.390625 202.572917 C 472.03125 208.177083 467.979167 210.791667 446.197917 220.791667 C 434.348958 226.229167 424.5 231.052083 424.307292 231.510417 C 424.109375 231.96875 424.197917 237.640625 424.494792 244.114583 C 424.796875 250.583333 424.682292 259.421875 424.239583 263.744792 C 423.6875 269.125 423.927083 272.125 424.979167 273.21875 C 425.833333 274.098958 435.854167 279.473958 447.25 285.171875 C 469.864583 296.46875 473.203125 299.010417 474.776042 306.140625 C 476.260417 312.880208 475.046875 316.942708 464 342.114583 L 453.432292 366.1875 L 448.875 369.026042 C 440.744792 374.088542 439.302083 373.916667 412.817708 364.671875 C 399.875 360.15625 388.973958 356.588542 388.588542 356.739583 C 388.203125 356.895833 384.932292 360.260417 381.322917 364.213542 C 377.708333 368.166667 371.28125 374.354167 367.03125 377.963542 C 362.786458 381.572917 359.203125 385.145833 359.067708 385.90625 C 358.932292 386.666667 362.130208 396.604167 366.177083 407.989583 C 370.223958 419.380208 373.6875 430.984375 373.880208 433.78125 C 374.286458 439.71875 372.322917 444.994792 368.203125 449.020833 C 364.567708 452.572917 320.744792 470.71875 314.677083 471.182292 C 309.604167 471.572917 301.921875 468.588542 298.369792 464.848958 C 297.010417 463.416667 291.609375 452.869792 286.369792 441.411458 C 281.130208 429.953125 276.166667 420.286458 275.333333 419.932292 C 274.505208 419.578125 268.864583 419.463542 262.802083 419.682292 C 256.739583 419.90625 247.947917 419.765625 243.270833 419.380208 C 236.807292 418.84375 234.458333 419.098958 233.479167 420.442708 C 232.765625 421.416667 227.552083 431.401042 221.885417 442.625 C 209.427083 467.3125 207.286458 469.65625 196.541667 470.385417 C 193.427083 470.598958 189.083333 469.020833 167.619792 459.885417 C 148.619792 451.796875 141.791667 448.520833 140.067708 446.671875 Z M 140.067708 446.671875" transform="matrix(0.75,0,0,0.75,0,0)"/> <use mask="url(#mask0)" xlink:href="#surface5"/> <path style="fill:rgb(100.000%,100.000%,100.000%);stroke-width:20.382973;stroke:rgb(90.196%,90.196%,90.196%)" d="M 330.359375 252 C 330.359375 293.109375 297.036458 326.432292 255.927083 326.432292 C 214.817708 326.432292 181.494792 293.109375 181.494792 252 C 181.494792 210.890625 214.817708 177.567708 255.927083 177.567708 C 297.036458 177.567708 330.359375 210.890625 330.359375 252 Z M 330.359375 252" transform="matrix(0.75,0,0,0.75,0,0)"/> </g> </svg>

<svg width="512" height="512" version="1.1" viewBox="0 0 384 384" xmlns="http://www.w3.org/2000/svg"><defs><clipPath><rect width="384" height="384"/></clipPath></defs><path d="m105.05 355.84c-2.2266-2.3906-3.8203-6.7656-3.7969-10.441 8e-3 -1.8945 1.9609-8.3633 5.5781-18.492 3.0625-8.5703 5.6055-16.352 5.6562-17.293 0.0664-1.2461-1.4219-3.082-5.4961-6.7773-3.0742-2.7891-7.5391-7.3672-9.9219-10.176-2.3867-2.8125-4.9961-5.3906-5.8047-5.7305-0.90625-0.38282-7.5625 1.543-17.379 5.0312-8.75 3.1094-17.152 5.7422-18.668 5.8516-3.1172 0.23047-8.9766-2-11.484-4.3711-1.9922-1.8867-16.574-37.184-16.895-40.898-0.31641-3.6836 2.2422-9.2383 5.4727-11.891 1.4727-1.207 9.4375-5.2539 17.699-8.9883 8.8945-4.0234 15.266-7.3711 15.621-8.207 0.32813-0.77734 0.40234-4.4219 0.16406-8.1016-0.23828-3.6758-0.21484-10.055 0.05469-14.176 0.26563-4.1172 0.08594-7.9727-0.40234-8.5625-0.48828-0.58985-7.5742-4.3516-15.742-8.3594-9.5-4.6602-15.754-8.1211-17.363-9.6016-3.0586-2.8203-5.3438-9.0117-4.582-12.434 0.30469-1.3867 4.2539-10.969 8.7656-21.289l8.2109-18.762 3.3203-1.8008c5.8633-3.1758 7.8711-2.8945 26.641 3.7344 10.625 3.7539 17.203 5.7461 17.949 5.4414 0.64844-0.26562 3.7109-3.168 6.8008-6.4453 3.0937-3.2773 7.6055-7.6484 10.027-9.707 2.4219-2.0586 4.6445-4.3203 4.9453-5.0195 0.29687-0.70312-1.7774-7.8672-4.6094-15.918-2.832-8.0469-5.4688-15.914-5.8633-17.477-1.1055-4.3984-0.20703-8.8789 2.5-12.496 2.043-2.7305 4.1211-3.8008 20.57-10.586 10.062-4.1484 19.734-7.6523 21.492-7.7852 4.082-0.30469 9.418 1.9297 12.023 5.0352 1.0976 1.3086 5.0469 9.082 8.7812 17.281 3.7305 8.1953 7.0976 15.312 7.4805 15.816 0.40625 0.52734 4.1836 0.76562 8.9922 0.56641 4.5625-0.1875 11.238-0.11719 14.836 0.15625 4.8789 0.37109 6.9258 0.15234 8.0508-0.85547 0.82422-0.74219 4.793-8.0273 8.8164-16.191 7.7344-15.695 9.3633-18.004 14.148-20.062 5.3242-2.2852 7.5781-1.7031 28.102 7.2695l18.695 8.1758 2.1133 3.1914c3.6367 5.4883 3.3633 7.832-3.0312 26.23-3.0977 8.9102-5.7578 16.937-5.9141 17.844-0.22266 1.2774 0.96484 2.7852 5.25 6.6758 3.0469 2.7656 7.7461 7.6211 10.441 10.793 2.6953 3.168 5.1719 5.8789 5.5078 6.0234 0.33593 0.14062 7.8633-2.3242 16.73-5.4766 8.8672-3.1524 17.562-5.8477 19.328-5.9922 4.168-0.33594 9.2383 1.832 12.203 5.2227 1.4102 1.6094 5.1055 9.6367 9.4258 20.477 7.4219 18.602 7.8086 20.535 5.3008 26.473-1.7695 4.2031-4.8086 6.1641-21.145 13.664-8.8867 4.0781-16.273 7.6953-16.418 8.0391-0.14844 0.34766-0.082 4.5977 0.14062 9.4531 0.22657 4.8516 0.14063 11.48-0.1914 14.727-0.41407 4.0312-0.23438 6.2812 0.55468 7.1016 0.64063 0.66016 8.1562 4.6953 16.703 8.9648 16.961 8.4727 19.465 10.379 20.645 15.727 1.1133 5.0547 0.20313 8.1055-8.082 26.98l-7.9258 18.055-3.418 2.1289c-6.0977 3.7969-7.1797 3.668-27.043-3.2656-9.707-3.3867-17.883-6.0625-18.172-5.9453-0.28907 0.11719-2.7422 2.6367-5.4492 5.6016-2.7109 2.9648-7.5312 7.6055-10.719 10.312-3.1836 2.707-5.8711 5.3906-5.9727 5.957-0.10156 0.57032 2.2969 8.0234 5.332 16.566 3.0352 8.5391 5.6328 17.242 5.7774 19.34 0.30468 4.4531-1.168 8.4102-4.2578 11.43-2.7266 2.6641-35.594 16.273-40.145 16.621-3.8047 0.29296-9.5664-1.9453-12.23-4.75-1.0195-1.0742-5.0703-8.9844-9-17.578-3.9297-8.5938-7.6523-15.844-8.2773-16.109-0.62109-0.26563-4.8516-0.34766-9.3984-0.1836-4.5469 0.16406-11.141 0.0586-14.648-0.23047-4.8476-0.40234-6.6094-0.21093-7.3438 0.80078-0.53515 0.73047-4.4453 8.2148-8.6953 16.633-9.3438 18.52-10.949 20.273-19.008 20.82-2.3359 0.16016-5.5938-1.0234-21.691-7.875-14.25-6.0664-19.371-8.5234-20.664-9.9102zm63.801-72.758c17.859 5.457 35.039 4.6953 52.363-2.3242 13.203-5.3516 23.598-13.23 32.766-24.828 5.7461-7.2734 13.438-25.453 14.699-34.746 3.8281-28.199-6.3789-54.484-28.199-72.621-5.082-4.2227-6.5938-5.0625-17.906-9.9141-10.836-4.6484-13.18-5.4141-19.062-6.2109-29.371-3.9727-58.473 8.6445-75.102 32.562-14.941 21.488-17.918 48.625-8.0352 73.227 5.1758 12.883 14.055 24.488 25.344 33.125 3.2188 2.4648 8.043 5.3555 15.094 9.0508 0.5625 0.29297 4.1797 1.5 8.0391 2.6797zm-4.9688-37.09c-15.961-12.535-22.074-33.234-15.391-52.109 4.6719-13.195 13.426-22.324 26.418-27.551 23.664-9.5195 50.293 1.5898 59.777 24.93 7.8125 19.227 2.9219 39.789-12.613 53.07-13.234 11.312-30 14.191-46.43 7.9727-5.5938-2.1172-8.207-3.5195-11.762-6.3125zm27.738-9.2812c5.7734 0.25 15.914-2.7539 20.57-6.7852 3.2891-2.8438 4.0078-3.9492 6.6836-10.258 2.8438-6.7148 1.1094-7.3516 0.60937-12.57-1.0117-10.535-6.0664-17.801-15.59-22.418-7.6523-3.707-13.035-4.0352-20.867-1.2695-9.9336 3.5078-16.637 11.395-18.141 21.34-1.3047 8.6133 0.67578 15.672 6.2461 22.27 5.1914 6.1562 11.883 9.3242 20.488 9.6914z" fill="#b3b3b3"/><path d="m105.05 335c-2.2266-2.3906-3.8203-6.7656-3.7969-10.441 0.47098-3.3606 4.8343-17.462 5.5781-18.496 3.0625-8.5664 5.6055-16.348 5.6562-17.289 0.0664-1.25-1.4219-3.082-5.4961-6.7813-3.0742-2.7852-7.5391-7.3672-9.9219-10.176-2.3867-2.8086-4.9961-5.3867-5.8047-5.7266-0.90625-0.38672-7.5625 1.543-17.379 5.0273-8.75 3.1094-17.152 5.7461-18.668 5.8555-3.1172 0.22657-8.9766-2.0039-11.484-4.375-1.9922-1.8828-16.574-37.18-16.895-40.895-0.31641-3.6836 2.2422-9.2383 5.4727-11.891 1.4727-1.2109 9.4375-5.2539 17.699-8.9922 8.8945-4.0195 15.266-7.3672 15.621-8.207 0.32812-0.77735 0.40234-4.418 0.16406-8.0977-0.23828-3.6758-0.21484-10.055 0.05469-14.176 0.26562-4.1211 0.08594-7.9727-0.40234-8.5664-0.48828-0.58985-7.5742-4.3516-15.742-8.3555-9.5-4.6602-15.754-8.1211-17.363-9.6016-3.0586-2.8242-5.3438-9.0117-4.582-12.434 0.30469-1.3906 4.2539-10.969 8.7695-21.289l8.207-18.766 3.3203-1.7969c5.8633-3.1758 7.8711-2.8945 26.641 3.7344 10.625 3.7539 17.203 5.7461 17.949 5.4414 0.64844-0.26953 3.7109-3.168 6.8008-6.4453 3.0938-3.2813 7.6055-7.6484 10.027-9.707 2.4219-2.0586 4.6445-4.3203 4.9453-5.0234 0.29687-0.70312-1.7774-7.8633-4.6094-15.914-2.832-8.0508-5.4688-15.914-5.8633-17.477-1.1055-4.3984-0.20703-8.8828 2.5-12.5 2.043-2.7305 4.1211-3.7969 20.57-10.582 10.062-4.1484 19.734-7.6523 21.492-7.7852 4.082-0.30469 9.418 1.9297 12.023 5.0352 1.0977 1.3047 5.0469 9.082 8.7813 17.281 3.7305 8.1953 7.0976 15.312 7.4805 15.812 0.40624 0.53125 4.1836 0.76953 8.9922 0.57031 4.5625-0.1875 11.238-0.12109 14.836 0.15234 4.8789 0.37109 6.9258 0.15625 8.0508-0.85156 0.82422-0.74609 4.793-8.0312 8.8164-16.191 7.7344-15.695 9.3633-18.008 14.148-20.062 5.3242-2.2891 7.5781-1.7031 28.102 7.2695l18.695 8.1719 2.1133 3.1914c3.6367 5.4922 3.3633 7.832-3.0312 26.234-3.0977 8.9062-5.7578 16.937-5.9141 17.844-0.22265 1.2734 0.96485 2.7812 5.25 6.6758 3.0469 2.7617 7.7461 7.6211 10.441 10.789 2.6953 3.1719 5.1719 5.8828 5.5078 6.0234 0.33594 0.14454 7.8633-2.3203 16.73-5.4726 8.8672-3.1524 17.563-5.8477 19.328-5.9922 4.168-0.33594 9.2383 1.832 12.203 5.2187 1.4102 1.6094 5.1055 9.6406 9.4258 20.477 7.4219 18.605 7.8086 20.539 5.3008 26.477-1.7695 4.2031-4.8086 6.1641-21.145 13.664-8.8867 4.0781-16.273 7.6953-16.418 8.0391-0.14844 0.34375-0.082 4.5976 0.14062 9.4531 0.22656 4.8516 0.14063 11.48-0.19141 14.723-0.41406 4.0352-0.23437 6.2852 0.5547 7.1055 0.64062 0.66016 8.1562 4.6914 16.703 8.9648 16.961 8.4727 19.465 10.379 20.645 15.727 1.1133 5.0547 0.20312 8.1016-8.082 26.98l-7.9258 18.055-3.418 2.1289c-6.0977 3.7969-7.1797 3.668-27.043-3.2656-9.707-3.3867-17.883-6.0625-18.172-5.9492-0.28906 0.11719-2.7422 2.6406-5.4492 5.6055-2.7109 2.9648-7.5312 7.6055-10.719 10.312-3.1836 2.707-5.8711 5.3867-5.9727 5.957-0.10156 0.57031 2.2969 8.0234 5.332 16.562 3.0352 8.543 5.6328 17.246 5.7774 19.344 0.30468 4.4531-1.168 8.4102-4.2578 11.43-2.7266 2.6641-35.594 16.273-40.145 16.621-3.8047 0.29297-9.5664-1.9453-12.23-4.75-1.0195-1.0742-5.0703-8.9844-9-17.578-3.9297-8.5938-7.6523-15.844-8.2773-16.109-0.62109-0.26563-4.8516-0.35157-9.3984-0.1875-4.5469 0.16797-11.141 0.0625-14.648-0.22656-4.8476-0.40235-6.6094-0.21094-7.3437 0.79687-0.53517 0.73047-4.4453 8.2188-8.6953 16.637-9.3438 18.516-10.949 20.273-19.008 20.82z" fill="#fff" stroke="#e6e6e6" stroke-width="15"/><path d="m191.95 133.03c-34.963 0-63.469 28.506-63.469 63.469 0 34.963 28.506 63.469 63.469 63.469s63.467-28.506 63.467-63.469-28.504-63.469-63.467-63.469z" color="#000000" color-rendering="auto" dominant-baseline="auto" image-rendering="auto" opacity=".3" shape-rendering="auto" solid-color="#000000" style="font-feature-settings:normal;font-variant-alternates:normal;font-variant-caps:normal;font-variant-ligatures:normal;font-variant-numeric:normal;font-variant-position:normal;isolation:auto;mix-blend-mode:normal;shape-padding:0;text-decoration-color:#000000;text-decoration-line:none;text-decoration-style:solid;text-indent:0;text-orientation:mixed;text-transform:none;white-space:normal"/><path d="m247.77 189c0 30.832-24.992 55.824-55.824 55.824-30.832 0-55.824-24.992-55.824-55.824 0-30.832 24.992-55.824 55.824-55.824 30.832 0 55.824 24.992 55.824 55.824z" fill="#fff" stroke="#e6e6e6" stroke-width="15.287"/></svg>
